X:132
T:En cantan
C:Folquet de Merseille
O:~1150-?
M:3/4
L:1/4
K:C
%%continueall 1
%%maxshrink 0.7
E | G2G | (AB)G | F>(DE) | (G/F/E/!breath!D/) C | (DC)F |
w:En
E>F (D/C/) | (F/G/) (FE/D/) | !breath!D2 (D/E/) | G2A | B2c | d G/ (A/B/) c/ | 
w:chan_tan_
(B/A/!breath!G) | A(c/B/A/G/) | !breath!A2d | d2e | c d/ (c/B/A/) | B!breath!AA |
w:lor__
(BA/G/)A | B2c | d2d | (c/B/A/B/)c | (B/A/!breath!G)E | (F2E) |
w:la__
(G>FE/D/) | !breath!D2E | G2G | (A>F)G | AB2 | !breath!d2f | 
w:"mer___ce~!"
(e>d) (d/c/) | (BA/G/) (A/G/) | (F>E) (F/G/) | (A>G) (G/F/) | (G/F/!breath!E) G |
w:il_ cor_
A2B | c(dc) | (BA/G/) (A/B/) | d2B | (c/B/A/G/A) |]
w:chas-ti-a,



%%header "$P0	 $IR 	$P1"
%%footer $D - Éditions Galouvielle - 2009 - À usage librement privé dans le cadre familial

